X: 29686
T: Note On The Bus, The
R: reel
M: 4/4
K: Aminor
Aagf e3c|d2 cd ecAG|Aagf e3c|ddcB AEGA|
Aagf e3c|d2 cd ec A2|AEAe d3e|dcBG EA A2||
Acec Acec|d2 cd ecAG|Acec Acec|ddcB AEGA|
Acec Acec|d2 cd ecAG|AEAe d3e|dcBG EA A2|
eaa^g e3c|d3e =g2 a2|eaa^g a3b|c'3b a=ged||
eaag e3c|d2 cd ecAG|AEAe d3e|dcBG EA A2||
EAcA Aecd|d2 cd ecAG|EAcA Aecd|ddcB AEGA|
EAcA Aece|g2 eg a3b|c'3b aged|cBAG EA A2||

